svgs/sharp-solid/blanket.svg

<svg xmlns="http://www.w3.org/2000/svg" viewBox="0 0 448 512"><!--! Font Awesome Pro 6.6.0 by @fontawesome - https://fontawesome.com License - https://fontawesome.com/license (Commercial License) Copyright 2024 Fonticons, Inc. --><path d="M0 32l32 0 384 0 32 0 0 32 0 160 0 32 0 48 0 48 0 32-32 0-288 0-32 0 0-64 32 0 256 0 0-16 0-16L64 288l0 64 0 64 352 0 32 0 0 64-32 0L32 480 0 480l0-32 0-96 0-96 0-32L0 64 0 32z"/></svg>

<svg xmlns="http://www.w3.org/2000/svg" viewBox="0 0 448 512"><!--! Font Awesome Pro 6.5.2 by @fontawesome - https://fontawesome.com License - https://fontawesome.com/license (Commercial License) Copyright 2024 Fonticons, Inc. --><path d="M0 32H32 416h32V64 224v32 48 48 32H416 128 96V320h32H384V304 288H64v64 64H416h32v64H416 32 0V448 352 256 224 64 32z"/></svg>
